assets/svg/1F352.svg

<svg xmlns="http://www.w3.org/2000/svg" viewBox="0 0 64 64" enable-background="new 0 0 64 64"><g transform="translate(2)"><path d="m23.808 3.692c5.582 6.717 10.657 13.85 12.04 22.673.562 3.608.063 7.177 1.734 10.554 1.621 3.263 3.522 7.04 6.713 8.977 2.206 1.339 4.02-2.222 1.84-3.542-2.847-1.727-5.437-7.185-5.897-10.347-.529-3.646-.472-7.176-1.425-10.791-1.971-7.461-6.81-13.865-11.659-19.695-1.626-1.958-4.987.194-3.342 2.171l0 0" fill="#047d3f"/><path d="m60.09 46.24c-.334 9.173-7.282 16.365-15.513 16.07-8.236-.301-14.637-7.982-14.305-17.16.338-9.179 7.04-9.85 15.28-9.551 8.232.3 14.872 1.453 14.538 10.638" fill="#9f1d2b"/><path d="m40.28 45.27c.26-7.104 4.34-9.106 9.986-9.51-1.47-.181-3.037-.28-4.672-.338-8.238-.299-14.94.367-15.28 9.545-.33 9.176 6.069 16.859 14.305 17.16 1.776.065 3.488-.24 5.096-.813-5.739-2.478-9.695-8.783-9.435-16.04" fill="#7f1425"/><path d="m52.37 37.886c0 0 7.632 1.354 5.953 10.319 0 0-2.693-9.947-5.953-10.319" fill="#fff"/><path d="m23.329 3.573c2.402 6.981-2.502 13.679-4.758 20.05-1.687 4.756-1.343 11.867 1.277 16.264 1.317 2.218 4.658.032 3.346-2.176-3.396-5.703-.955-13.07 1.512-18.496 2.437-5.37 4.414-11.08 2.409-16.898-.839-2.428-4.63-1.185-3.786 1.255l0 0" fill="#00a551"/><g><path d="m36.653 48.05c-2.01 10.508-11.272 17.565-20.7 15.765-9.43-1.8-15.447-11.776-13.432-22.28 2-10.512 9.84-10.1 19.272-8.297 9.426 1.802 16.865 4.304 14.86 14.812" fill="#be202e"/><path d="m14.01 43.44c1.558-8.135 6.609-9.715 13.183-9.184-1.661-.472-3.447-.857-5.32-1.217-9.432-1.8-17.271-2.214-19.282 8.296-2 10.503 4.01 20.48 13.442 22.28 2.037.388 4.056.344 6.01-.038-6.168-3.862-9.611-11.824-8.03-20.14" fill="#9b1c29"/><path d="m29.24 37.08c0 0 8.553 2.906 5.03 12.933 0 0-1.343-11.932-5.03-12.933" fill="#fff"/></g><path d="m25.519.084c-2.896 1.064-5.287 1.47-8.384 1.233-2.089-.161-4.446-.062-6.301 1.032-2.031 1.198-3.314 3.02-4.466 5.04-.641 1.14-1.191 2.325-1.852 3.451-.933 1.591-2.51 2.029-3.968 2.95-.768.492-.726 1.717.103 2.126 4.392 2.138 8.696 4.744 13.327 1.766 2.168-1.386 3.606-3.869 4.999-5.957 1.981-2.981 4.252-5.452 6.619-8.109.296-.336.356-.708.281-1.046.137-.048.276-.1.416-.147 1.483-.545.719-2.889-.774-2.334m-8.05 6.882c0-.032 0-.062-.004-.093.042-.022.082-.038.123-.06-.036.056-.082.104-.119.153" fill="#047d3f"/></g></svg>

<?xml version="1.0" encoding="UTF-8" standalone="no"?>
<!-- Generator: Adobe Illustrator 16.0.0, SVG Export Plug-In . SVG Version: 6.00 Build 0)  -->

<svg
   xmlns:dc="http://purl.org/dc/elements/1.1/"
   xmlns:cc="http://creativecommons.org/ns#"
   xmlns:rdf="http://www.w3.org/1999/02/22-rdf-syntax-ns#"
   xmlns:svg="http://www.w3.org/2000/svg"
   xmlns="http://www.w3.org/2000/svg"
   xmlns:sodipodi="http://sodipodi.sourceforge.net/DTD/sodipodi-0.dtd"
   xmlns:inkscape="http://www.inkscape.org/namespaces/inkscape"
   version="1.1"
   id="Layer_1"
   x="0px"
   y="0px"
   width="64px"
   height="64px"
   viewBox="0 0 64 64"
   enable-background="new 0 0 64 64"
   xml:space="preserve"
   inkscape:version="0.48.5 r10040"
   sodipodi:docname="1F352.svg"
   inkscape:export-filename="D:\TESTINGEMOJI\SVGTEST\1F352.png"
   inkscape:export-xdpi="90"
   inkscape:export-ydpi="90"><metadata
   id="metadata3595"><rdf:RDF><cc:Work
       rdf:about=""><dc:format>image/svg+xml</dc:format><dc:type
         rdf:resource="http://purl.org/dc/dcmitype/StillImage" /><dc:title></dc:title></cc:Work></rdf:RDF></metadata><defs
   id="defs3593" /><sodipodi:namedview
   pagecolor="#ffffff"
   bordercolor="#666666"
   borderopacity="1"
   objecttolerance="10"
   gridtolerance="10"
   guidetolerance="10"
   inkscape:pageopacity="0"
   inkscape:pageshadow="2"
   inkscape:window-width="640"
   inkscape:window-height="480"
   id="namedview3591"
   showgrid="false"
   inkscape:zoom="3.6875"
   inkscape:cx="32"
   inkscape:cy="32"
   inkscape:window-x="421"
   inkscape:window-y="281"
   inkscape:window-maximized="0"
   inkscape:current-layer="Layer_1" />
<g
   id="g3565"
   transform="translate(2,0)">
	<g
   id="g3567">
		<path
   d="m 23.808,3.692 c 5.582,6.717 10.657,13.85 12.036,22.673 0.562,3.608 0.063,7.177 1.734,10.554 1.621,3.263 3.522,7.041 6.713,8.977 2.206,1.339 4.023,-2.222 1.84,-3.542 C 43.284,40.627 40.694,35.169 40.234,32.007 39.705,28.361 39.762,24.831 38.809,21.216 36.838,13.755 31.999,7.351 27.15,1.521 25.524,-0.437 22.163,1.715 23.808,3.692 l 0,0 z"
   id="path3569"
   inkscape:connector-curvature="0"
   style="fill:#047d3f" />
	</g>
	<path
   d="M 60.09,46.236 C 59.756,55.409 52.808,62.601 44.577,62.305 36.341,62.004 29.94,54.323 30.272,45.149 c 0.338,-9.179 7.043,-9.85 15.28,-9.551 8.232,0.3 14.872,1.453 14.538,10.638 z"
   id="path3571"
   inkscape:connector-curvature="0"
   style="fill:#9f1d2b" />
	<path
   d="m 40.279,45.273 c 0.26,-7.104 4.34,-9.106 9.986,-9.51 -1.47,-0.181 -3.037,-0.28 -4.672,-0.338 -8.238,-0.299 -14.94,0.367 -15.28,9.545 -0.33,9.176 6.069,16.859 14.305,17.157 1.776,0.065 3.488,-0.24 5.096,-0.813 -5.739,-2.478 -9.695,-8.783 -9.435,-16.041 z"
   id="path3573"
   inkscape:connector-curvature="0"
   style="fill:#7f1425" />
	<path
   d="m 52.366,37.886 c 0,0 7.632,1.354 5.953,10.319 0,0 -2.693,-9.947 -5.953,-10.319 z"
   id="path3575"
   inkscape:connector-curvature="0"
   style="fill:#ffffff" />
	<g
   id="g3577">
		<path
   d="m 23.329,3.573 c 2.402,6.981 -2.502,13.679 -4.758,20.051 -1.687,4.756 -1.343,11.867 1.277,16.264 1.317,2.218 4.658,0.032 3.346,-2.176 C 19.798,32.009 22.239,24.646 24.706,19.216 27.143,13.846 29.12,8.139 27.115,2.318 26.276,-0.11 22.485,1.133 23.329,3.573 l 0,0 z"
   id="path3579"
   inkscape:connector-curvature="0"
   style="fill:#00a551" />
	</g>
	<g
   id="g3581">
		<path
   d="M 36.653,48.048 C 34.645,58.556 25.381,65.613 15.953,63.813 6.523,62.013 0.506,52.037 2.521,41.533 c 2.003,-10.512 9.84,-10.097 19.272,-8.297 9.426,1.802 16.865,4.304 14.86,14.812 z"
   id="path3583"
   inkscape:connector-curvature="0"
   style="fill:#be202e" />
		<path
   d="m 14.01,43.443 c 1.558,-8.135 6.609,-9.715 13.183,-9.184 -1.661,-0.472 -3.447,-0.857 -5.32,-1.217 -9.432,-1.8 -17.271,-2.214 -19.282,8.296 -2.001,10.503 4.01,20.48 13.442,22.28 2.037,0.388 4.056,0.344 6.007,-0.038 -6.168,-3.862 -9.611,-11.824 -8.03,-20.137 z"
   id="path3585"
   inkscape:connector-curvature="0"
   style="fill:#9b1c29" />
		<path
   d="m 29.236,37.076 c 0,0 8.553,2.906 5.03,12.933 0,0 -1.343,-11.932 -5.03,-12.933 z"
   id="path3587"
   inkscape:connector-curvature="0"
   style="fill:#ffffff" />
	</g>
	<path
   d="M 25.519,0.084 C 22.623,1.148 20.232,1.554 17.135,1.317 15.046,1.156 12.689,1.255 10.834,2.349 8.803,3.547 7.52,5.365 6.368,7.384 5.727,8.524 5.177,9.709 4.516,10.835 c -0.933,1.591 -2.51,2.029 -3.968,2.95 -0.768,0.492 -0.726,1.717 0.103,2.126 4.392,2.138 8.696,4.744 13.327,1.766 2.168,-1.386 3.606,-3.869 4.999,-5.957 1.981,-2.981 4.252,-5.452 6.619,-8.109 0.296,-0.336 0.356,-0.708 0.281,-1.046 0.137,-0.048 0.276,-0.1 0.416,-0.147 1.483,-0.545 0.719,-2.889 -0.774,-2.334 z m -8.054,6.882 c 0,-0.032 0,-0.062 -0.004,-0.093 0.042,-0.022 0.082,-0.038 0.123,-0.06 -0.036,0.056 -0.082,0.104 -0.119,0.153 z"
   id="path3589"
   inkscape:connector-curvature="0"
   style="fill:#047d3f" />
</g>
</svg>
